X:1
T:The Banks of the Ohio
M:6/8
L:1/4
K:G
 G/2| G G/2 G G/2-| G/2 D- D G/2| G G/2 G A/2| G3/2- G G/2| B B/2 B B/2|\
 d G/2 G G/2| A3/2 D/2D/2D/2| D3/2- D B/2| d B/2 G G/2| d- B/2 G G/2|\
 A G/2 F E/2| D3/2 D D/2| G G/2 G G/2| G3/2 D D/2| G G/2 A B/2| c3/2 c3/2|\
 B B/2 B A/2| G3/2 D D/2| E G/2 G A/2| G3/2- G||
